svg/400/rounded/visibility.svg

<svg xmlns="http://www.w3.org/2000/svg" width="48" height="48" viewBox="0 -960 960 960"><path d="M480.118-330Q551-330 600.5-379.618q49.5-49.617 49.5-120.5Q650-571 600.382-620.5q-49.617-49.5-120.5-49.5Q409-670 359.5-620.382q-49.5 49.617-49.5 120.5Q310-429 359.618-379.5q49.617 49.5 120.5 49.5Zm-.353-58Q433-388 400.5-420.735q-32.5-32.736-32.5-79.5Q368-547 400.735-579.5q32.736-32.5 79.5-32.5Q527-612 559.5-579.265q32.5 32.736 32.5 79.5Q592-453 559.265-420.5q-32.736 32.5-79.5 32.5ZM480-200q-135 0-245.5-76T57-470q-4-7.125-6-14.646-2-7.521-2-15.437 0-7.917 2-15.381 2-7.465 6-14.536 67-118 177.5-194T480-800q135 0 245.5 76T903-530q4 7.125 6 14.646 2 7.521 2 15.437 0 7.917-2 15.381-2 7.465-6 14.536-67 118-177.5 194T480-200Zm0-300Zm-.169 240Q601-260 702.5-325.5 804-391 857-500q-53-109-154.331-174.5-101.332-65.5-222.5-65.5Q359-740 257.5-674.5 156-609 102-500q54 109 155.331 174.5 101.332 65.5 222.5 65.5Z"/></svg>

<svg xmlns="http://www.w3.org/2000/svg" width="48" height="48" viewBox="0 -960 960 960"><path d="M480.12-330q70.88 0 120.38-49.62t49.5-120.5q0-70.88-49.62-120.38T479.88-670Q409-670 359.5-620.38T310-499.88q0 70.88 49.62 120.38t120.5 49.5Zm-.36-58q-46.76 0-79.26-32.74-32.5-32.73-32.5-79.5 0-46.76 32.74-79.26 32.73-32.5 79.5-32.5 46.76 0 79.26 32.74 32.5 32.73 32.5 79.5 0 46.76-32.74 79.26-32.73 32.5-79.5 32.5Zm.24 188q-135 0-245.5-76T57-470q-4-7.13-6-14.65-2-7.52-2-15.43 0-7.92 2-15.38 2-7.47 6-14.54 67-118 177.5-194T480-800q135 0 245.5 76T903-530q4 7.12 6 14.65 2 7.52 2 15.43 0 7.92-2 15.38-2 7.47-6 14.54-67 118-177.5 194T480-200Zm0-300Zm-.17 240Q601-260 702.5-325.5 804-391 857-500q-53-109-154.33-174.5Q601.34-740 480.17-740T257.5-674.5Q156-609 102-500q54 109 155.33 174.5Q358.66-260 479.83-260Z"/></svg>
